X: 34100
T: Reel Des Moissonneurs
R: reel
M: 4/4
K: Fmajor
fg|:afcA Fz gf|edBG D3c|cBGE cBGE|FGA B/d/ (3cde fg|
afcA Fz gf|edBG D3c|cBGE cB (3GAG|1 FfcA F2 zg:|2 FfcA F2 (3EF^F||
K:C
|:G^FGA G=FEG|cBcd eg zg|gfdB gfdB|cGce ge (3EF^F|
G^FGA G=FEG|cBcd eg zg|gfdB gfdB|1 cc'ge c2 GG:|2 cc'ge cefg||

